X:1
T:CWa
C:B00391205
Z:B00391205
Z:B00391205
L:1/8
M:4/4
I:linebreak $
K:C
"^\n" (DEGB cBGE | D7) z | DEGB cBGE | e8 | e2 d2 ecBG |$ A2 B2 A2 GE | D2 G-G- GFED | C8 |] %8
